release/img/level1.svg

<svg width="930" height="1028" viewBox="0 0 930 1028" fill="none" xmlns="http://www.w3.org/2000/svg">
<rect x="803.726" y="188.284" width="27.0355" height="27.0355" transform="rotate(-31.8942 803.726 188.284)" fill="#FF8001"/>
<rect x="875.042" y="650.165" width="27.0355" height="27.0355" transform="rotate(-104.939 875.042 650.165)" fill="#1FAD96"/>
<path d="M162.057 97.0517C164.455 94.7643 168.253 94.8535 170.54 97.251L175.144 102.076C176.859 103.874 179.708 103.941 181.506 102.226V102.226C183.304 100.51 183.371 97.6615 181.655 95.8633L177.052 91.0383C174.764 88.6407 174.853 84.8428 177.251 82.5553L182.076 77.9518C183.874 76.2362 183.941 73.3877 182.225 71.5896V71.5896C180.51 69.7914 177.661 69.7245 175.863 71.4401L171.038 76.0437C168.641 78.3311 164.843 78.2419 162.555 75.8444L157.952 71.0193C156.236 69.2212 153.388 69.1543 151.59 70.8699V70.8699C149.791 72.5855 149.724 75.4339 151.44 77.2321L156.044 82.0571C158.331 84.4546 158.242 88.2526 155.844 90.5401L151.019 95.1436C149.221 96.8592 149.154 99.7076 150.87 101.506V101.506C152.585 103.304 155.434 103.371 157.232 101.655L162.057 97.0517Z" fill="#1FAD96"/>
<circle cx="111.5" cy="374.5" r="17.5" stroke="#FF8001" stroke-width="12"/>
</svg>

<svg xmlns="http://www.w3.org/2000/svg" width="930" height="1028" fill="none" viewBox="0 0 930 1028">
  <path fill="#FF8001" d="M803.726 188.284 826.679 174l14.284 22.954-22.953 14.283z"/>
  <path fill="#1FAD96" d="m875.042 650.165-6.97-26.121 26.122-6.97 6.97 26.122zM162.057 97.052a6 6 0 0 1 8.483.199l4.604 4.825a4.5 4.5 0 1 0 6.511-6.213l-4.603-4.825a6 6 0 0 1 .199-8.483l4.825-4.603a4.5 4.5 0 1 0-6.213-6.512l-4.825 4.604a6 6 0 0 1-8.483-.2l-4.603-4.825a4.5 4.5 0 0 0-6.362-.15 4.499 4.499 0 0 0-.15 6.363l4.604 4.825a6 6 0 0 1-.2 8.483l-4.825 4.604a4.5 4.5 0 1 0 6.213 6.511l4.825-4.603Z"/>
  <circle cx="111.5" cy="374.5" r="17.5" stroke="#FF8001" stroke-width="12"/>
</svg>
